!!!!SEGMENT: pl-cz--iii-574--001-004_rodowski-aleksander--missa-in-c-credo.krn
!!!cenid: 18xx:1022
!!!COM: Rodowski, Aleksander
!!!COM-rismID: pe30009627
!!!CDT: <1790->1810
!!!CNT: Polish
!!!OPR: Missa in C
!!!OTL: Credo
!!!OMV: 004
!!!PDT: 1801
!!!AGN: Sacred; Mass
!!!YEC: Copyright 2022 Narodowy Instytut Fryderyka Chopina (https://polishscores.org)
!!!YEM: License CC-BY-4.0 (https://creativecommons.org/licenses/by/4.0)
!!!SMS-siglum: PL-CZ
!!!SMS-shelfmark: III-574
!!!SMS-shelfwork: 001-004 M
!!!SMS-variant:
!!!SMS-altvar:
!!!NIFC-rismSourceID: 300001098
!!!NIFC-rismChildID: 300001098
!!!NIFC-islandoraID: pl-cz:39292
!!!URL-pdf-islandora: https://repozytorium.nifc.pl/islandora/object/pl-cz%3A39292/datastream/PDF/view
!!!URL-scan: https://polish.musicsources.pl/pl/lokalizacje/galeria/rekopisy/6956/1 @EN{Scan on Polish Music Sources Website} @PL{Skany w portalu Dziedzictwo Muzyki Polskiej w otwartym dostępie}
!!!IIIF:
!!!ONB-nifc: UWAGA: części Mszy: Kyrie, Christe, Gloria, Credo, Sanctus, Pleni, Benedictus, Agnus Dei
!!!AIN: 1 alto 1 bass 2 clars 2 cor 2 oboe 1 organ 1 soprn 1 timpa 2 tromb 2 violn
!!!key: C
**kern	**fba	**dynam	**kern	**dynam	**kern	**dynam	**kern	**text	**kern	**text	**kern	**text	**kern	**kern	**kern	**kern	**kern	**kern	**kern	**kern	**kern
*	*	*	*group4	*	*group4	*	*group3	*	*group3	*	*group3	*	*	*group2	*group2	*group2	*group2	*group1	*group1	*group1	*group1
*part15	*	*	*part14	*	*part13	*	*part12	*	*part11	*	*part10	*	*part9	*part8	*part7	*part6	*part5	*part4	*part3	*part2	*part1
*staff15	*	*	*staff14	*	*staff13	*	*staff12	*	*staff11	*	*staff10	*	*staff9	*staff8	*staff7	*staff6	*staff5	*staff4	*staff3	*staff2	*staff1
*I"Organo.	*	*	*I"Violino Secondo.	*	*I"Violino Primo.	*	*I"Basſo.	*	*I"Alto.	*	*I"Canto.	*	*I"Tympano in C.	*I"Clarino Secondo in C.	*I"Clarino Primo. in C:	*I"Cornu Secondo.	*I"Cornu Primo. ex. C.	*I"Clarinetto Secondo. in B.	*I"Clarinetto Primo. in B.	*I"Oboe Secondo.	*I"Oboe Primo.
*I'org	*	*	*I'vl 2	*	*I'vl 1	*	*I'B	*	*I'A	*	*I'S	*	*I'timp	*I'clno 2 in C	*I'clno 1 in C	*I'cor 2	*I'cor 1 in C	*I'cl 2 in B|b	*I'cl 1 in B|b	*I'ob 2	*I'ob 1
*Iorgan	*	*	*Ivioln	*	*Ivioln	*	*Ibass	*	*Ialto	*	*Isoprn	*	*Itimpa	*Itromb	*Itromb	*Icor	*Icor	*Iclars	*Iclars	*Ioboe	*Ioboe
*ICklav	*	*	*ICstr	*	*ICstr	*	*ICvox	*	*ICvox	*	*ICvox	*	*ICidio	*ICbras	*ICbras	*ICbras	*ICbras	*ICww	*ICww	*ICww	*ICww
*IGcont	*	*	*	*	*	*	*IGcoro	*	*IGcoro	*	*IGcoro	*	*	*	*	*	*	*	*	*	*
*clefF4	*	*	*clefG2	*	*clefG2	*	*clefF4	*	*clefC3	*	*clefC1	*	*clefF4	*clefG2	*clefG2	*clefG2	*clefG2	*clefG2	*clefG2	*clefG2	*clefG2
*	*	*	*	*	*	*	*	*	*	*	*	*	*	*	*	*ITrd0c0	*ITrd0c0	*ITrd1c2	*ITrd1c2	*	*
*k[]	*	*	*k[]	*	*k[]	*	*k[]	*	*k[]	*	*k[]	*	*k[]	*k[]	*k[]	*k[]	*k[]	*k[]	*k[]	*k[]	*k[]
*C:	*	*	*C:	*	*C:	*	*C:	*	*C:	*	*C:	*	*C:	*C:	*C:	*C:	*C:	*C:	*C:	*C:	*C:
*M3/4	*	*	*M3/4	*	*M3/4	*	*M3/4	*	*M3/4	*	*M3/4	*	*M3/4	*M3/4	*M3/4	*M3/4	*M3/4	*M3/4	*M3/4	*M3/4	*M3/4
=1	=1	=1	=1	=1	=1	=1	=1	=1	=1	=1	=1	=1	=1	=1	=1	=1	=1	=1	=1	=1	=1
*2\right	*	*	*	*	*	*	*	*	*	*	*	*	*	*	*	*	*	*	*	*	*
*tremolo	*	*	*tremolo	*	*	*	*	*	*	*	*	*	*	*	*	*	*	*	*	*	*
!LO:TX:b:i:t=Tutti	!	!	!	!	!	!	!	!	!	!	!	!	!	!	!	!	!	!	!	!	!
!LO:TX:a:Bi:t=allo moderato.	!	!	!LO:TX:a:Bi:t=allo moderato.	!LO:DY:t=for	!LO:TX:a:Bi:t=Allo moderato.	!	!LO:TX:a:Bi:t=moderato.	!	!LO:TX:a:Bi:t=Moderato.	!	!LO:TX:a:Bi:t=Moderato.	!	!LO:TX:a:Bi:t=Moderato.	!LO:TX:a:Bi:t=allo moderato.	!LO:TX:a:Bi:t=Allegro	!	!	!	!LO:TX:a:Bi:t=Allo Moderato.	!LO:TX:a:Bi:t=allo moderato.	!LO:TX:a:Bi:t=Moderato.
8c\L	.	.	16eLL 16G/	f	4cc 4e 4G/	.	4c\	Pa-	4g\	Pa-	4ee\	Pa-	4C/	4e/	4cc\	4e/	4cc\	4ee\	4gg\	4ee\	4gg\
.	.	.	16e 16G/	.	.	.	.	.	.	.	.	.	.	.	.	.	.	.	.	.	.
8c\	.	.	16e 16G/	.	.	.	.	.	.	.	.	.	.	.	.	.	.	.	.	.	.
.	.	.	16e 16G/	.	.	.	.	.	.	.	.	.	.	.	.	.	.	.	.	.	.
!	!	!	!	!	!	!LO:DY:t=for	!	!	!	!	!	!	!	!	!	!	!	!	!	!	!
8c\	.	.	16e 16G/	.	16c/LL	f	8c\	-trem	8g\	-trem	8ee\	-trem	4C/	4e/	4cc\	4e/	4cc\	4ee\	4ee\	4cc\	4ee\
.	.	.	16e 16G/	.	16d/	.	.	.	.	.	.	.	.	.	.	.	.	.	.	.	.
8c\	.	.	16e 16G/	.	16e/	.	8c\	om-	8g\	o-	8ee\	om-	.	.	.	.	.	.	.	.	.
.	.	.	16e 16G/	.	16f/JJ	.	.	.	.	.	.	.	.	.	.	.	.	.	.	.	.
8c\	.	.	16e 16G/	.	16g/LL	.	8c\	-ni-	8g\	-mni-	8ee\	-ni-	4C/	4e/	4cc\	4e/	4cc\	4cc\	4ee\	4cc\	4ee\
.	.	.	16e 16G/	.	16a/	.	.	.	.	.	.	.	.	.	.	.	.	.	.	.	.
8c\J	.	.	16e 16G/	.	16b/	.	8c\	-po-	8g\	-po-	8ee\	-po-	.	.	.	.	.	.	.	.	.
.	.	.	16eJJ 16G/	.	16cc/JJ	.	.	.	.	.	.	.	.	.	.	.	.	.	.	.	.
*Xtremolo	*	*	*	*	*	*	*	*	*	*	*	*	*	*	*	*	*	*	*	*	*
=2	=2	=2	=2	=2	=2	=2	=2	=2	=2	=2	=2	=2	=2	=2	=2	=2	=2	=2	=2	=2	=2
8d\L	.	.	16fLL 16G/	.	4b 4d 4G/	.	4d\	-ten-	4g\	-ten-	4ff\	-ten-	4GG/	4g/	4dd\	4g/	4dd\	4dd\	4ff\	4dd\	4ff\
.	.	.	16f 16G/	.	.	.	.	.	.	.	.	.	.	.	.	.	.	.	.	.	.
8d\	.	.	16f 16G/	.	.	.	.	.	.	.	.	.	.	.	.	.	.	.	.	.	.
.	.	.	16f 16G/	.	.	.	.	.	.	.	.	.	.	.	.	.	.	.	.	.	.
8G\	.	.	16f 16G/	.	16b\LL	.	4G\	-tem	4g\	-tem	4dd\	-tem	4GG/	4e/	4g/	4e/	4g/	4b\	4dd\	4b\	4dd\
.	.	.	16f 16G/	.	16cc\	.	.	.	.	.	.	.	.	.	.	.	.	.	.	.	.
8G\	.	.	16f 16G/	.	16dd\	.	.	.	.	.	.	.	.	.	.	.	.	.	.	.	.
.	.	.	16f 16G/	.	16cc\JJ	.	.	.	.	.	.	.	.	.	.	.	.	.	.	.	.
8B\	.	.	16f 16G/	.	16b\LL	.	8r	.	8r	.	8r	.	4r	4r	4r	4r	4r	4r	4r	4r	4r
.	.	.	16f 16G/	.	16g\	.	.	.	.	.	.	.	.	.	.	.	.	.	.	.	.
8B\J	.	.	16f 16G/	.	16a\	.	8G\	fac-	8g\	fac-	8dd\	fac-	.	.	.	.	.	.	.	.	.
.	.	.	16fJJ 16G/	.	16b\JJ	.	.	.	.	.	.	.	.	.	.	.	.	.	.	.	.
=3	=3	=3	=3	=3	=3	=3	=3	=3	=3	=3	=3	=3	=3	=3	=3	=3	=3	=3	=3	=3	=3
*tremolo	*	*	*	*	*	*	*	*	*	*	*	*	*	*	*	*	*	*	*	*	*
8c\L	.	.	16eLL 16G/	.	4cc 4e 4G/	.	4c\	-to-	4g\	-to-	8ee\	-to-	4C/	4e/	4cc\	4e/	4cc\	4ee\	4gg\	4ee\	4gg\
.	.	.	16e 16G/	.	.	.	.	.	.	.	.	.	.	.	.	.	.	.	.	.	.
8c\	.	.	16e 16G/	.	.	.	.	.	.	.	8ee\	-rem	.	.	.	.	.	.	.	.	.
.	.	.	16e 16G/	.	.	.	.	.	.	.	.	.	.	.	.	.	.	.	.	.	.
8c\	.	.	16e 16G/	.	16c/LL	.	8c\	-rem	8g\	-rem	8ee\	cae-	4C/	4e/	4cc\	4e/	4cc\	4cc\	4ee\	4cc\	4ee\
.	.	.	16e 16G/	.	16d/	.	.	.	.	.	.	.	.	.	.	.	.	.	.	.	.
8c\	.	.	16e 16G/	.	16e/	.	8c\	cae-	8g\	cae-	8ee\	-li	.	.	.	.	.	.	.	.	.
.	.	.	16e 16G/	.	16f/JJ	.	.	.	.	.	.	.	.	.	.	.	.	.	.	.	.
*	*	*	*	*	*	*	*	*	*	*	*	*ij	*	*	*	*	*	*	*	*	*
8c\	.	.	16e 16G/	.	16g/LL	.	8c\	-li	8g\	-li	8ee\	cae-	4C/	4e/	4cc\	4e/	4cc\	4cc\	4ee\	4cc\	4ee\
.	.	.	16e 16G/	.	16a/	.	.	.	.	.	.	.	.	.	.	.	.	.	.	.	.
8c\J	.	.	16e 16G/	.	16b/	.	8c\	et	8g\	et	8ee\	-li	.	.	.	.	.	.	.	.	.
*	*	*	*	*	*	*	*	*	*	*	*	*Xij	*	*	*	*	*	*	*	*	*
.	.	.	16eJJ 16G/	.	16cc/JJ	.	.	.	.	.	.	.	.	.	.	.	.	.	.	.	.
*Xtremolo	*	*	*	*	*	*	*	*	*	*	*	*	*	*	*	*	*	*	*	*	*
!	!	!	!	!	!	!	!LO:LB:g=original	!	!	!	!	!	!	!	!	!	!	!	!	!	!
=4	=4	=4	=4	=4	=4	=4	=4	=4	=4	=4	=4	=4	=4	=4	=4	=4	=4	=4	=4	=4	=4
8d\L	.	.	16fLL 16G/	.	4b 4d 4G/	.	4d\	ter-	4g\	ter-	4ff\	ter-	4GG/	4g/	4dd\	4g/	4dd\	4dd\	4ff\	4dd\	4ff\
.	.	.	16f 16G/	.	.	.	.	.	.	.	.	.	.	.	.	.	.	.	.	.	.
8d\	.	.	16f 16G/	.	.	.	.	.	.	.	.	.	.	.	.	.	.	.	.	.	.
.	.	.	16f 16G/	.	.	.	.	.	.	.	.	.	.	.	.	.	.	.	.	.	.
8G\	.	.	16f 16G/	.	16b\LL	.	4G\	-rae,	4g\	-rae.	4dd\	-rae,	4GG/	4e/	4g/	4e/	4g/	4b\	4dd\	4b\	4dd\
.	.	.	16f 16G/	.	16cc\	.	.	.	.	.	.	.	.	.	.	.	.	.	.	.	.
8G\	.	.	16f 16G/	.	16dd\	.	.	.	.	.	.	.	.	.	.	.	.	.	.	.	.
.	.	.	16f 16G/	.	16cc\JJ	.	.	.	.	.	.	.	.	.	.	.	.	.	.	.	.
8B\	.	.	16f 16G/	.	16b\LL	.	4r	.	4r	.	4r	.	4r	4r	4r	4r	4r	4r	4r	4r	4r
.	.	.	16f 16G/	.	16g\	.	.	.	.	.	.	.	.	.	.	.	.	.	.	.	.
8B\J	.	.	16f 16G/	.	16a\	.	.	.	.	.	.	.	.	.	.	.	.	.	.	.	.
.	.	.	16fJJ 16G/	.	16b\JJ	.	.	.	.	.	.	.	.	.	.	.	.	.	.	.	.
!	!	!	!	!	!	!	!	!	!LO:LB:g=original	!	!	!	!	!	!	!	!	!	!	!	!
=5	=5	=5	=5	=5	=5	=5	=5	=5	=5	=5	=5	=5	=5	=5	=5	=5	=5	=5	=5	=5	=5
*tremolo	*	*	*	*	*	*	*2\right	*	*2\right	*	*2\right	*	*	*	*	*	*	*2\right	*2\right	*2\right	*2\right
!	!	!	!	!	!	!	!	!	!	!	!	!	!LO:TX:a:t=6.	!LO:TX:a:t=4	!LO:TX:a:t=4	!	!LO:TX:a:t=4.	!	!	!	!
8c\L	3	.	16e/LL	.	16cc/LL	.	2c\	vi-	(2g\	Vi-	2ee\	vi-	0.r	0.r	0.r	0.r	0.r	2cc\	2ee\	2cc\	2ee\
.	.	.	16e/	.	16c/	.	.	.	.	.	.	.	.	.	.	.	.	.	.	.	.
8c\	.	.	16e/	.	16d/	.	.	.	.	.	.	.	.	.	.	.	.	.	.	.	.
!	!	!	!	!	!	!	!	!	!LO:TX:a:t=♭	!	!	!	!	!	!	!	!	!	!	!	!
.	.	.	16e/	.	16e/JJ	.	.	.	.	.	.	.	.	.	.	.	.	.	.	.	.
8c\	.	.	16e/	.	16f/LL	.	.	.	.	.	.	.	.	.	.	.	.	.	.	.	.
.	.	.	16e/	.	16g/	.	.	.	.	.	.	.	.	.	.	.	.	.	.	.	.
8c\J	.	.	16e/	.	16a/	.	.	.	.	.	.	.	.	.	.	.	.	.	.	.	.
.	.	.	16e/JJ	.	16b/JJ	.	.	.	.	.	.	.	.	.	.	.	.	.	.	.	.
*Xtremolo	*	*	*	*	*	*	*	*	*	*	*	*	*	*	*	*	*	*	*	*	*
8B-X\L	4 2	.	16g/LL	.	16cc\LL	.	4B-X\	-ſi-	4b-X\)	-si-	4ee\	-si-	.	.	.	.	.	4cc\	4gg\	4cc\	4gg\
.	.	.	16g/	.	16cc\	.	.	.	.	.	.	.	.	.	.	.	.	.	.	.	.
8B-\J	.	.	16g/	.	16ee\	.	.	.	.	.	.	.	.	.	.	.	.	.	.	.	.
.	.	.	16g/JJ	.	16ee\JJ	.	.	.	.	.	.	.	.	.	.	.	.	.	.	.	.
!	!	!	!	!	!LO:LB:g=original	!	!	!	!	!	!LO:LB:g=original	!	!	!	!	!	!	!	!	!	!
=6	=6	=6	=6	=6	=6	=6	=6	=6	=6	=6	=6	=6	=6	=6	=6	=6	=6	=6	=6	=6	=6
8A\L	6 3	.	16a/LL	.	16ff\LL	.	4A\	-bi-	4a\	-bi-	4ff\	-bi-	.	.	.	.	.	4a\	4ff\	4a/	4ff\
.	.	.	16a/	.	16ff\	.	.	.	.	.	.	.	.	.	.	.	.	.	.	.	.
8A\	.	.	16a/	.	16ff\	.	.	.	.	.	.	.	.	.	.	.	.	.	.	.	.
.	.	.	16a/JJ	.	16ff\JJ	.	.	.	.	.	.	.	.	.	.	.	.	.	.	.	.
8E\	.	.	16e/LL	.	16gg\LL	.	4E\	-li-	4cc\	-li-	4gg\	-li-	.	.	.	.	.	4ee\	4gg\	4ee\	4gg\
.	.	.	16e/	.	16gg\	.	.	.	.	.	.	.	.	.	.	.	.	.	.	.	.
8E\	6 3	.	16e/	.	16gg\	.	.	.	.	.	.	.	.	.	.	.	.	.	.	.	.
.	.	.	16e/JJ	.	16gg\JJ	.	.	.	.	.	.	.	.	.	.	.	.	.	.	.	.
*	*	*	*Xtremolo	*	*	*	*	*	*	*	*	*	*	*	*	*	*	*	*	*	*
8F\	.	.	16f/LL	.	16aa\LL	.	4F\	-um	4cc\	-um	4aa\	-um	.	.	.	.	.	4ff\	4aa\	4ff\	4aa\
.	.	.	16f/	.	16aa\	.	.	.	.	.	.	.	.	.	.	.	.	.	.	.	.
8F\J	.	.	16a/	.	16ff\	.	.	.	.	.	.	.	.	.	.	.	.	.	.	.	.
.	.	.	16a/JJ	.	16ff\JJ	.	.	.	.	.	.	.	.	.	.	.	.	.	.	.	.
!LO:LB:g=original	!	!	!	!	!	!	!	!	!	!	!	!	!	!	!	!	!	!	!LO:LB:g=original	!	!
=7	=7	=7	=7	=7	=7	=7	=7	=7	=7	=7	=7	=7	=7	=7	=7	=7	=7	=7	=7	=7	=7
*tremolo	*	*	*tremolo	*	*	*	*	*	*	*	*	*	*	*	*	*	*	*	*	*	*
8d\L	#	.	16f#X/LL	.	16dd/LL	.	2d\	om-	2a\	om-	2ff#X\	om-	.	.	.	.	.	2dd\	2ff#X\	2dd\	2ff#X\
.	.	.	16f#/	.	16d/	.	.	.	.	.	.	.	.	.	.	.	.	.	.	.	.
8d\	.	.	16f#/	.	16e/	.	.	.	.	.	.	.	.	.	.	.	.	.	.	.	.
.	.	.	16f#/	.	16f#X/JJ	.	.	.	.	.	.	.	.	.	.	.	.	.	.	.	.
8d\	.	.	16f#/	.	16g/LL	.	.	.	.	.	.	.	.	.	.	.	.	.	.	.	.
.	.	.	16f#/	.	16a/	.	.	.	.	.	.	.	.	.	.	.	.	.	.	.	.
8d\J	.	.	16f#/	.	16b/	.	.	.	.	.	.	.	.	.	.	.	.	.	.	.	.
.	.	.	16f#/JJ	.	16cc/JJ	.	.	.	.	.	.	.	.	.	.	.	.	.	.	.	.
*Xtremolo	*	*	*	*	*	*	*	*	*	*	*	*	*	*	*	*	*	*	*	*	*
8c\L	#4r 2	.	16a/LL	.	16dd\LL	.	4c\	-ni-	4cc\	-ni-	4ff#\	-ni-	.	.	.	.	.	4dd\	4aa\	4dd\	4aa\
.	.	.	16a/	.	16dd\	.	.	.	.	.	.	.	.	.	.	.	.	.	.	.	.
8c\J	.	.	16a/	.	16ff#X\	.	.	.	.	.	.	.	.	.	.	.	.	.	.	.	.
.	.	.	16a/JJ	.	16ff#\JJ	.	.	.	.	.	.	.	.	.	.	.	.	.	.	.	.
!	!	!	!	!	!	!	!	!	!	!	!	!	!	!	!	!	!	!LO:LB:g=original	!	!LO:LB:g=original	!
=8	=8	=8	=8	=8	=8	=8	=8	=8	=8	=8	=8	=8	=8	=8	=8	=8	=8	=8	=8	=8	=8
*	*	*	*	*	*tremolo	*	*	*	*	*	*	*	*	*	*	*	*	*	*	*	*
8Bn\L	6	.	16b/LL	.	16gg\LL	.	4Bn\	-um	4bn\	-um	4gg\	-um	.	.	.	.	.	4b\	4gg\	4b/	4gg\
.	.	.	16b/	.	16gg\	.	.	.	.	.	.	.	.	.	.	.	.	.	.	.	.
8B\	.	.	16b/	.	16gg\	.	.	.	.	.	.	.	.	.	.	.	.	.	.	.	.
.	.	.	16b/JJ	.	16gg\JJ	.	.	.	.	.	.	.	.	.	.	.	.	.	.	.	.
8F#X\	6	.	16f#X/LL	.	16aa\LL	.	4r	.	4r	.	4r	.	.	.	.	.	.	4ff#X\	4aa\	4ff#X\	4aa\
.	.	.	16f#/	.	16aa\	.	.	.	.	.	.	.	.	.	.	.	.	.	.	.	.
8F#\	.	.	16f#/	.	16aa\	.	.	.	.	.	.	.	.	.	.	.	.	.	.	.	.
.	.	.	16f#/JJ	.	16aa\JJ	.	.	.	.	.	.	.	.	.	.	.	.	.	.	.	.
*	*	*	*Xtremolo	*	*Xtremolo	*	*	*	*	*	*	*	*	*	*	*	*	*	*	*	*
8G\	.	.	16g/LL	.	16bb\LL	.	8G\	et	8b\	et	8gg\	et	.	.	.	.	.	4gg\	4bb\	4gg\	4bb\
.	.	.	16g/	.	16bb\	.	.	.	.	.	.	.	.	.	.	.	.	.	.	.	.
8G\J	.	.	16b/	.	16gg\	.	8G\	in-	8b\	in-	8gg\	in-	.	.	.	.	.	.	.	.	.
.	.	.	16b/JJ	.	16gg\JJ	.	.	.	.	.	.	.	.	.	.	.	.	.	.	.	.
=9	=9	=9	=9	=9	=9	=9	=9	=9	=9	=9	=9	=9	=9	=9	=9	=9	=9	=9	=9	=9	=9
*tremolo	*	*	*tremolo	*	*	*	*	*	*	*	*	*	*	*	*2\right	*	*2\right	*	*	*	*
8G\L	n7 5	.	16fnLL 16G/	.	16ffn\LL	.	2G\	-vi-	2dd\	-vi-	2ffn\	vi-	1.r	2.g/	2.dd\	2.g/	2.dd\	2.dd\	2.ffn\	2.dd\	2.ffn\
.	.	.	16f 16G/	.	16ff\	.	.	.	.	.	.	.	.	.	.	.	.	.	.	.	.
8G\	.	.	16f 16G/	.	16ddd\	.	.	.	.	.	.	.	.	.	.	.	.	.	.	.	.
.	.	.	16f 16G/	.	16ddd\JJ	.	.	.	.	.	.	.	.	.	.	.	.	.	.	.	.
8G\	.	.	16f 16G/	.	16bb\LL	.	.	.	.	.	.	.	.	.	.	.	.	.	.	.	.
.	.	.	16f 16G/	.	16bb\	.	.	.	.	.	.	.	.	.	.	.	.	.	.	.	.
8G\J	.	.	16f 16G/	.	16gg\	.	.	.	.	.	.	.	.	.	.	.	.	.	.	.	.
.	.	.	16f 16G/	.	16gg\JJ	.	.	.	.	.	.	.	.	.	.	.	.	.	.	.	.
*Xtremolo	*	*	*	*	*	*	*	*	*	*	*	*	*	*	*	*	*	*	*	*	*
8A\L	.	.	16f 16G/	.	16ff\LL	.	8A\L	-si-	4dd\	-ſi-	4ff\	-si-	.	.	.	.	.	.	.	.	.
.	.	.	16f 16G/	.	16ff\	.	.	.	.	.	.	.	.	.	.	.	.	.	.	.	.
8B\J	.	.	16f 16G/	.	16dd\	.	8B\J	.	.	.	.	.	.	.	.	.	.	.	.	.	.
.	.	.	16fJJ 16G/	.	16dd\JJ	.	.	.	.	.	.	.	.	.	.	.	.	.	.	.	.
!	!	!	!LO:LB:g=original	!	!	!	!	!	!	!	!	!	!	!	!	!	!	!	!	!	!LO:LB:g=original
=10	=10	=10	=10	=10	=10	=10	=10	=10	=10	=10	=10	=10	=10	=10	=10	=10	=10	=10	=10	=10	=10
*	*	*	*	*	*	*	*	*	*	*	*	*	*	*2\right	*	*2\right	*	*	*	*	*
8c\L	.	.	16eLL 16G/	.	16ee\LL	.	4c\	-bi-	4cc\	-bi-	4ee\	-bi-	.	2.cc\	2.ee\	2.cc\	2.ee\	2.cc\	2.ee\	2.cc\	2.ee\
.	.	.	16e 16G/	.	16ee\	.	.	.	.	.	.	.	.	.	.	.	.	.	.	.	.
8c\	.	.	16e 16G/	.	16ccc\	.	.	.	.	.	.	.	.	.	.	.	.	.	.	.	.
.	.	.	16e 16G/	.	16ccc\JJ	.	.	.	.	.	.	.	.	.	.	.	.	.	.	.	.
8G\	.	.	16e 16G/	.	16gg\LL	.	8G\	-li-	8cc\	-li-	8ee\	-li-	.	.	.	.	.	.	.	.	.
.	.	.	16e 16G/	.	16gg\	.	.	.	.	.	.	.	.	.	.	.	.	.	.	.	.
8G\	.	.	16e 16G/	.	16ee\	.	8G\	-um	8cc\	-um	8ee\	-um	.	.	.	.	.	.	.	.	.
.	.	.	16e 16G/	.	16ee\JJ	.	.	.	.	.	.	.	.	.	.	.	.	.	.	.	.
8E\	.	.	16e 16G/	.	16cc\LL	.	8E\	et	8cc\	et	8ee\	et	.	.	.	.	.	.	.	.	.
.	.	.	16e 16G/	.	16cc\	.	.	.	.	.	.	.	.	.	.	.	.	.	.	.	.
8E\J	.	.	16e 16G/	.	16ee\	.	8E\	in	8cc\	in-	8ee\	in	.	.	.	.	.	.	.	.	.
.	.	.	16eJJ 16G/	.	16ee\JJ	.	.	.	.	.	.	.	.	.	.	.	.	.	.	.	.
!	!	!	!	!	!LO:LB:g=original	!	!LO:LB:g=original	!	!LO:LB:g=original	!	!	!	!	!	!	!	!	!	!	!	!
=11	=11	=11	=11	=11	=11	=11	=11	=11	=11	=11	=11	=11	=11	=11	=11	=11	=11	=11	=11	=11	=11
*tremolo	*	*	*	*	*	*	*	*	*	*	*	*	*	*	*	*	*	*	*	*	*
8F\L	.	.	16fLL 16G/	.	16dd\LL	.	8F\	u-	8a\	-vi-	8dd\	u-	4r	4r	4r	4dd\	4ff\	4ff\	4ff\	4ff\	4ff\
.	.	.	16f 16G/	.	16dd\	.	.	.	.	.	.	.	.	.	.	.	.	.	.	.	.
8F\	.	.	16f 16G/	.	16ccc\	.	8F\	-num	8a\	-si-	8dd\	-num	.	.	.	.	.	.	.	.	.
.	.	.	16fJJ 16G/	.	16ccc\JJ	.	.	.	.	.	.	.	.	.	.	.	.	.	.	.	.
8F\	.	.	16dLL 16G/	.	16dd\LL	.	4G\	Do-	4g\	-bi-	4cc\	Do-	4r	4r	4r	4r	4r	4dd\	4dd\	4dd\	4dd\
.	.	.	16d 16G/	.	16dd\	.	.	.	.	.	.	.	.	.	.	.	.	.	.	.	.
8F\J	.	.	16d 16G/	.	16ccc\	.	.	.	.	.	.	.	.	.	.	.	.	.	.	.	.
.	.	.	16dJJ 16G/	.	16ccc\JJ	.	.	.	.	.	.	.	.	.	.	.	.	.	.	.	.
*Xtremolo	*	*	*	*	*	*	*	*	*	*	*	*	*	*	*	*	*	*	*	*	*
8G\L	.	.	16gLL 16G/	.	16dd\LL	.	4GG/	-mi-	4g\	-li-	4b\	-mi-	4GG/	4g/	4dd\	4g/	4dd\	4gg\	4gg\	4gg\	4gg\
.	.	.	16g 16G/	.	16dd\	.	.	.	.	.	.	.	.	.	.	.	.	.	.	.	.
8G\J	.	.	16g 16G/	.	16bb\	.	.	.	.	.	.	.	.	.	.	.	.	.	.	.	.
.	.	.	16gJJ 16G/	.	16bb\JJ	.	.	.	.	.	.	.	.	.	.	.	.	.	.	.	.
*	*	*	*Xtremolo	*	*	*	*	*	*	*	*	*	*	*	*	*	*	*	*	*	*
=12	=12	=12	=12	=12	=12	=12	=12	=12	=12	=12	=12	=12	=12	=12	=12	=12	=12	=12	=12	=12	=12
4C/	.	.	4e 4G/	.	4ccc 4ee\	.	4C/	-num	4e\	-um	4cc\	-num	4C/	4e/	4cc\	4e/	4cc\	4c/	4cc\	4c/	4cc\
4r	.	.	4r	.	4r	.	4r	.	4cc\	Cre-	8ee\	Je-	4r	4r	4r	4r	4r	4r	4r	4r	4r
.	.	.	.	.	.	.	.	.	.	.	8ee\	-ſum	.	.	.	.	.	.	.	.	.
4r	.	.	4r	.	4r	.	4r	.	4cc\	-do.	8ee\	Ch(ri)-	4r	4r	4r	4r	4r	4r	4r	4r	4r
.	.	.	.	.	.	.	.	.	.	.	8ee\	-ſtum	.	.	.	.	.	.	.	.	.
!	!	!	!	!	!	!	!	!	!	!	!LO:PB:g=original	!	!	!	!LO:LB:g=original	!LO:LB:g=original	!	!	!	!	!
=13	=13	=13	=13	=13	=13	=13	=13	=13	=13	=13	=13	=13	=13	=13	=13	=13	=13	=13	=13	=13	=13
!	!	!LO:DY:t=pia	!	!LO:DY:t=pia	!	!LO:DY:t=pia	!	!	!LO:TX:a:t=6	!	!LO:TX:a:t=6	!	!LO:TX:a:t=6	!LO:TX:a:t=6	!LO:TX:a:t=6	!LO:TX:a:t=6.	!	!LO:TX:a:t=1.	!LO:TX:a:t=1.	!LO:TX:a:t=1.	!LO:TX:a:t=1.
4GG/	.	p	4.d/	p	4.b/	p	(4.B\	Je-	0.r	.	0.r	.	0.r	0.r	0.r	0.r	0.r	2.r	2.r	2.r	2.r
4r	.	.	.	.	.	.	.	.	.	.	.	.	.	.	.	.	.	.	.	.	.
.	.	.	8B/L	.	8g/L	.	8G\	.	.	.	.	.	.	.	.	.	.	.	.	.	.
4G\	.	.	8c/	.	8a/	.	8A\)	.	.	.	.	.	.	.	.	.	.	.	.	.	.
.	.	.	8d/J	.	8b/J	.	8B\	-sum	.	.	.	.	.	.	.	.	.	.	.	.	.
=14	=14	=14	=14	=14	=14	=14	=14	=14	=14	=14	=14	=14	=14	=14	=14	=14	=14	=14	=14	=14	=14
4c\	.	.	4e/	.	4cc\	.	4c\	Chri-	.	.	.	.	.	.	.	.	.	4r	4r	4r	4r
!	!	!	!	!	!	!	!	!	!	!	!	!	!	!	!	!	!	!	!LO:TX:a:i:t=Solo	!	!
4C/	.	.	4c/	.	4c/	.	4C/	-ſtum.	.	.	.	.	.	.	.	.	.	4ee\	4ccc\	4ee\	4ccc\
4r	.	.	4r	.	4r	.	4r	.	.	.	.	.	.	.	.	.	.	4ee\	4ccc\	4ee\	4ccc\
=15	=15	=15	=15	=15	=15	=15	=15	=15	=15	=15	=15	=15	=15	=15	=15	=15	=15	=15	=15	=15	=15
!	!	!	!	!	!	!	!LO:TX:a:t=1.	!	!	!	!	!	!	!	!	!	!	!	!	!	!
4GG/	.	.	4.d/	.	4.f/	.	2.r	.	.	.	.	.	.	.	.	.	.	4.dd\	4.bb\	4.dd\	4.bb\
4r	.	.	.	.	.	.	.	.	.	.	.	.	.	.	.	.	.	.	.	.	.
.	.	.	8B/L	.	8d/L	.	.	.	.	.	.	.	.	.	.	.	.	8b\L	8gg\L	8b\L	8gg\L
4G\	.	.	8c/	.	8e/	.	.	.	.	.	.	.	.	.	.	.	.	8cc\	8aa\	8cc\	8aa\
.	.	.	8d/J	.	8f/J	.	.	.	.	.	.	.	.	.	.	.	.	8dd\J	8bb\J	8dd\J	8bb\J
!LO:LB:g=original	!	!	!	!	!	!	!	!	!	!	!	!	!	!	!	!	!	!	!	!	!
=16	=16	=16	=16	=16	=16	=16	=16	=16	=16	=16	=16	=16	=16	=16	=16	=16	=16	=16	=16	=16	=16
4c\	.	.	4c/	.	4e/	.	4r	.	.	.	.	.	.	.	.	.	.	4cc\	4ccc\	4cc\	4ccc\
4C/	.	.	4c/	.	4c/	.	4r	.	.	.	.	.	.	.	.	.	.	4cc\	4cc\	4cc\	4cc\
4r	.	.	4r	.	4r	.	4c\	fi-	.	.	.	.	.	.	.	.	.	4r	4r	4r	4r
=17	=17	=17	=17	=17	=17	=17	=17	=17	=17	=17	=17	=17	=17	=17	=17	=17	=17	=17	=17	=17	=17
!	!	!	!	!	!	!	!	!	!	!	!	!	!	!	!	!	!	!LO:TX:a:t=2.	!LO:TX:a:t=2.	!LO:TX:a:t=2.	!LO:TX:a:t=2.
4F\	.	.	4f/	.	4a/	.	4A\	-li-	1.r	.	1.r	.	1.r	1.r	1.r	1.r	1.r	1.r	1.r	1.r	1.r
4r	.	.	4r	.	4r	.	8A\L	-um	.	.	.	.	.	.	.	.	.	.	.	.	.
.	.	.	.	.	.	.	8F\J	.	.	.	.	.	.	.	.	.	.	.	.	.	.
!	!	!	!LO:SIC:v:o=4f/	!	!	!	!	!	!	!	!	!	!	!	!	!	!	!	!	!	!
4F#X\	.	.	4f#/	.	4a/	.	8D/	De-	.	.	.	.	.	.	.	.	.	.	.	.	.
.	.	.	.	.	.	.	8C/	-i	.	.	.	.	.	.	.	.	.	.	.	.	.
!	!	!	!	!	!	!	!LO:LB:g=original	!	!	!	!	!	!	!	!	!	!	!	!	!	!
=18	=18	=18	=18	=18	=18	=18	=18	=18	=18	=18	=18	=18	=18	=18	=18	=18	=18	=18	=18	=18	=18
4G\	.	.	4e/	.	4g/	.	(8G\	De-	.	.	.	.	.	.	.	.	.	.	.	.	.
.	.	.	.	.	.	.	8GG/)	.	.	.	.	.	.	.	.	.	.	.	.	.	.
!	!	!	!	!	!	!LO:DY:t=for	!	!	!	!	!	!	!	!	!	!	!	!	!	!	!
4GG/	.	.	16b\LL	.	16b/LL	f	4GG/	-i	.	.	.	.	.	.	.	.	.	.	.	.	.
.	.	.	16g\	.	16g/	.	.	.	.	.	.	.	.	.	.	.	.	.	.	.	.
.	.	.	16b\	.	16b/	.	.	.	.	.	.	.	.	.	.	.	.	.	.	.	.
.	.	.	16dd\JJ	.	16dd/JJ	.	.	.	.	.	.	.	.	.	.	.	.	.	.	.	.
4r	.	.	4gg\	.	4gg\	.	4r	.	.	.	.	.	.	.	.	.	.	.	.	.	.
!	!	!	!	!	!	!	!	!	!	!	!	!	!LO:LB:g=original	!LO:LB:g=original	!	!	!LO:LB:g=original	!LO:LB:g=original	!LO:LB:g=original	!LO:LB:g=original	!
=19	=19	=19	=19	=19	=19	=19	=19	=19	=19	=19	=19	=19	=19	=19	=19	=19	=19	=19	=19	=19	=19
*tremolo	*	*	*tremolo	*	*tremolo	*	*	*	*	*	*	*	*	*	*	*	*	*	*	*	*
!LO:TX:b:i:t=Tutti	!	!	!	!LO:DY:t=for	!	!	!	!	!	!	!	!	!	!	!	!	!	!	!	!	!
8G\L	3	.	16g/LL	f	16g/LL	.	(4G\	u-	(4g\	Je-	(4g\	fi-	2.GG/	2.g/	2.g/	2.g/	2.g/	4b\	4gg\	4b\	4gg\
.	.	.	16g/	.	16g/	.	.	.	.	.	.	.	.	.	.	.	.	.	.	.	.
8G\	.	.	16g/	.	16g/	.	.	.	.	.	.	.	.	.	.	.	.	.	.	.	.
.	.	.	16g/	.	16g/JJ	.	.	.	.	.	.	.	.	.	.	.	.	.	.	.	.
8G\	.	.	16g/	.	16a/LL	.	4Fn\)	.	4g	.	4a\)	-li-	.	.	.	.	.	4b\	4gg\	4b\	4gg\
.	.	.	16g/	.	16a/	.	.	.	.	.	.	.	.	.	.	.	.	.	.	.	.
8G\J	.	.	16g/	.	16a/	.	.	.	.	.	.	.	.	.	.	.	.	.	.	.	.
.	.	.	16g/	.	16a/JJ	.	.	.	.	.	.	.	.	.	.	.	.	.	.	.	.
*Xtremolo	*	*	*	*	*	*	*	*	*	*	*	*	*	*	*	*	*	*	*	*	*
8Fn\L	4 2	.	16g/	.	16b/LL	.	4D\	-ni	4g\)	-ſum	4b\	-um	.	.	.	.	.	4dd\	4ff\	4dd\	4ff\
.	.	.	16g/	.	16b/	.	.	.	.	.	.	.	.	.	.	.	.	.	.	.	.
8F\J	.	.	16g/	.	16b/	.	.	.	.	.	.	.	.	.	.	.	.	.	.	.	.
.	.	.	16g/JJ	.	16b/JJ	.	.	.	.	.	.	.	.	.	.	.	.	.	.	.	.
!	!	!	!	!	!LO:LB:g=original	!	!	!	!	!	!	!	!	!	!	!	!	!	!	!	!
=20	=20	=20	=20	=20	=20	=20	=20	=20	=20	=20	=20	=20	=20	=20	=20	=20	=20	=20	=20	=20	=20
8E\L	6	.	16g/LL	.	16cc\LL	.	2E\	u-	2g\	Chri-	(4cc\	De-	4GG/	4g/	4g/	4g/	4g/	4cc\	4ee\	4cc\	4ee\
.	.	.	16g/	.	16cc\	.	.	.	.	.	.	.	.	.	.	.	.	.	.	.	.
8E\	.	.	16g/	.	16cc\	.	.	.	.	.	.	.	.	.	.	.	.	.	.	.	.
.	.	.	16g/	.	16cc\JJ	.	.	.	.	.	.	.	.	.	.	.	.	.	.	.	.
8D\	6	.	16g/	.	16dd\LL	.	.	.	.	.	4dd\)	.	4r	4r	4r	4r	4r	4r	4r	4r	4r
.	.	.	16g/	.	16dd\	.	.	.	.	.	.	.	.	.	.	.	.	.	.	.	.
8D\	.	.	16g/	.	16dd\	.	.	.	.	.	.	.	.	.	.	.	.	.	.	.	.
.	.	.	16g/	.	16dd\JJ	.	.	.	.	.	.	.	.	.	.	.	.	.	.	.	.
8C\	.	.	16g/	.	16ee\LL	.	8C\	.	4g\	-ſtum	4ee\	-i	4r	4r	4r	4r	4r	4r	4r	4r	4r
.	.	.	16g/	.	16ee\	.	.	.	.	.	.	.	.	.	.	.	.	.	.	.	.
8C\J	.	.	16g/	.	16ee\	.	8C\	-ni-	.	.	.	.	.	.	.	.	.	.	.	.	.
.	.	.	16g/JJ	.	16ee\JJ	.	.	.	.	.	.	.	.	.	.	.	.	.	.	.	.
=21	=21	=21	=21	=21	=21	=21	=21	=21	=21	=21	=21	=21	=21	=21	=21	=21	=21	=21	=21	=21	=21
*tremolo	*	*	*	*	*	*	*	*	*	*	*	*	*	*	*	*	*	*	*	*	*
!	!	!	!	!	!	!	!	!	!	!	!	!	!LO:TX:a:t=4.	!	!	!	!	!	!	!	!
8E\L	#	.	16e/LL	.	16e/LL	.	4G#X\	-ge-	4.e\	fi-	(4e/	u-	0.r	2.e/|>	2.e/|>	2.e/	2.e/	4g#X/	4ee\	4g#X/	4ee\
.	.	.	16e/	.	16e/	.	.	.	.	.	.	.	.	.	.	.	.	.	.	.	.
8E\	.	.	16e/	.	16e/	.	.	.	.	.	.	.	.	.	.	.	.	.	.	.	.
.	.	.	16e/	.	16e/JJ	.	.	.	.	.	.	.	.	.	.	.	.	.	.	.	.
!	!	!	!	!	!	!	!LO:SIC:v:o=4F\	!	!	!	!	!	!	!	!	!	!	!	!	!	!
8E\	.	.	16e/	.	16f#X/LL	.	4F#\	-ni-	.	.	4f/)	.	.	.	.	.	.	4g#/	4ee\	4g#/	4ee\
.	.	.	16e/	.	16f#/	.	.	.	.	.	.	.	.	.	.	.	.	.	.	.	.
8E\J	.	.	16e/	.	16f#/	.	.	.	8e\	-li-	.	.	.	.	.	.	.	.	.	.	.
.	.	.	16e/	.	16f#/JJ	.	.	.	.	.	.	.	.	.	.	.	.	.	.	.	.
*Xtremolo	*	*	*	*	*	*	*	*	*	*	*	*	*	*	*	*	*	*	*	*	*
8D\L	#4r 2	.	16e/	.	16g#X/LL	.	4E\	-tum	4e\	-um	4g#X/	-ni-	.	.	.	.	.	4b\	4dd\	4b/	4dd\
.	.	.	16e/	.	16g#/	.	.	.	.	.	.	.	.	.	.	.	.	.	.	.	.
8D\J	.	.	16e/	.	16g#/	.	.	.	.	.	.	.	.	.	.	.	.	.	.	.	.
.	.	.	16e/JJ	.	16g#/JJ	.	.	.	.	.	.	.	.	.	.	.	.	.	.	.	.
!	!	!	!	!	!	!	!	!	!	!	!	!	!	!	!	!	!	!	!	!	!LO:LB:g=original
=22	=22	=22	=22	=22	=22	=22	=22	=22	=22	=22	=22	=22	=22	=22	=22	=22	=22	=22	=22	=22	=22
8C/L	6	.	16e/LL	.	16a/LL	.	4.A\	et	(4.e\	De-	4.a\	-ge-	.	4e/|>	4e/|>	4e/	4e/	4a\	4cc\	4a/	4cc\
.	.	.	16e/	.	16a/	.	.	.	.	.	.	.	.	.	.	.	.	.	.	.	.
8C/	.	.	16e/	.	16a/	.	.	.	.	.	.	.	.	.	.	.	.	.	.	.	.
.	.	.	16e/	.	16a/JJ	.	.	.	.	.	.	.	.	.	.	.	.	.	.	.	.
8BB/	6\	.	16e/	.	16b/LL	.	.	.	.	.	.	.	.	4r	4r	4r	4r	4r	4r	4r	4r
.	.	.	16e/	.	16b/	.	.	.	.	.	.	.	.	.	.	.	.	.	.	.	.
8BB/	.	.	16e/	.	16b/	.	8A\	ex	8e\	.	8b\	-ni-	.	.	.	.	.	.	.	.	.
.	.	.	16e/	.	16b/JJ	.	.	.	.	.	.	.	.	.	.	.	.	.	.	.	.
8AA/	.	.	16e/	.	16cc/LL	.	8A\	pa-	4e\)	-i	4cc\	-tum	.	4r	4r	4r	4r	4r	4r	4r	4r
.	.	.	16e/	.	16cc/	.	.	.	.	.	.	.	.	.	.	.	.	.	.	.	.
!	!	!	!	!	!	!	!LO:TX:a:t=a	!	!	!	!	!	!	!	!	!	!	!	!	!	!
8AA/J	.	.	16e/	.	16cc/	.	8A\	-tre	.	.	.	.	.	.	.	.	.	.	.	.	.
.	.	.	16e/JJ	.	16cc/JJ	.	.	.	.	.	.	.	.	.	.	.	.	.	.	.	.
!	!	!	!	!	!	!	!LO:LB:g=original	!	!LO:LB:g=original	!	!	!	!	!	!	!	!	!	!	!	!
=23	=23	=23	=23	=23	=23	=23	=23	=23	=23	=23	=23	=23	=23	=23	=23	=23	=23	=23	=23	=23	=23
*tremolo	*	*	*	*	*	*	*	*	*	*	*	*	*	*	*	*	*	*	*	*	*
8D\L	3	.	16d/LL	.	16d/LL	.	2c\	na-	2f#X\	u-	2a\	De-	.	2.dd\	2.dd\	2.dd\	2.dd\	4f#X/	4dd\	4f#X/	4dd\
.	.	.	16d/	.	16d/	.	.	.	.	.	.	.	.	.	.	.	.	.	.	.	.
8D\	.	.	16d/	.	16d/	.	.	.	.	.	.	.	.	.	.	.	.	.	.	.	.
.	.	.	16d/	.	16d/JJ	.	.	.	.	.	.	.	.	.	.	.	.	.	.	.	.
8D\	.	.	16d/	.	16e/LL	.	.	.	.	.	.	.	.	.	.	.	.	4f#/	4dd\	4f#/	4dd\
.	.	.	16d/	.	16e/	.	.	.	.	.	.	.	.	.	.	.	.	.	.	.	.
8D\J	.	.	16d/	.	16e/	.	.	.	.	.	.	.	.	.	.	.	.	.	.	.	.
.	.	.	16d/	.	16e/JJ	.	.	.	.	.	.	.	.	.	.	.	.	.	.	.	.
*Xtremolo	*	*	*	*	*	*	*	*	*	*	*	*	*	*	*	*	*	*	*	*	*
8C/L	4 2	.	16d/	.	16f#X/LL	.	4A\	-tum	4f#\	-ni-	4cc\	-um	.	.	.	.	.	4a/	4cc\	4a/	4dd\
.	.	.	16d/	.	16f#/	.	.	.	.	.	.	.	.	.	.	.	.	.	.	.	.
8C/J	.	.	16d/	.	16f#/	.	.	.	.	.	.	.	.	.	.	.	.	.	.	.	.
.	.	.	16d/JJ	.	16f#/JJ	.	.	.	.	.	.	.	.	.	.	.	.	.	.	.	.
!LO:LB:g=original	!	!	!LO:LB:g=original	!	!	!	!	!	!	!	!	!	!	!	!	!	!	!	!	!	!
=24	=24	=24	=24	=24	=24	=24	=24	=24	=24	=24	=24	=24	=24	=24	=24	=24	=24	=24	=24	=24	=24
8BB/L	6	.	16d/LL	.	16g/LL	.	4B\	an-	4g\	-ge-	4b\	ve-	.	4dd\	4dd\	4dd\	4dd\	4g/	4b\	4g/	4b\
.	.	.	16d/	.	16g/	.	.	.	.	.	.	.	.	.	.	.	.	.	.	.	.
8BB/	.	.	16d/	.	16g/	.	.	.	.	.	.	.	.	.	.	.	.	.	.	.	.
.	.	.	16d/	.	16g/JJ	.	.	.	.	.	.	.	.	.	.	.	.	.	.	.	.
8AA/	6\	.	16d/	.	16a/LL	.	8B\	-te	8a\	-ni-	8cc\	-rum	.	4r	4r	4r	4r	4a/	4cc\	4a/	4cc\
.	.	.	16d/	.	16a/	.	.	.	.	.	.	.	.	.	.	.	.	.	.	.	.
8AA/	.	.	16d/	.	16a/	.	8B\	om-	8a\	-tum	8cc\	de	.	.	.	.	.	.	.	.	.
.	.	.	16d/	.	16a/JJ	.	.	.	.	.	.	.	.	.	.	.	.	.	.	.	.
8GG/	.	.	16d/	.	16b/LL	.	8G\	-ni-	8b\	u-	8dd\	De-	.	4r	4r	4r	4r	4b/	4dd\	4b/	4dd\
.	.	.	16d/	.	16b/	.	.	.	.	.	.	.	.	.	.	.	.	.	.	.	.
8GG/J	.	.	16d/	.	16b/	.	8G\	-a	8b\	-ni-	8dd\	-o	.	.	.	.	.	.	.	.	.
.	.	.	16d/JJ	.	16b/JJ	.	.	.	.	.	.	.	.	.	.	.	.	.	.	.	.
*	*	*	*	*	*Xtremolo	*	*	*	*	*	*	*	*	*	*	*	*	*	*	*	*
!	!	!	!	!	!	!	!	!	!	!	!LO:LB:g=original	!	!	!	!	!	!	!	!	!	!
=25	=25	=25	=25	=25	=25	=25	=25	=25	=25	=25	=25	=25	=25	=25	=25	=25	=25	=25	=25	=25	=25
8C/L	.	.	16c/LL	.	16a\LL	.	(4c\	Se-	2cc\	-ge-	2ee\	ve-	4r	4r	4r	4r	4r	2cc\	2ee\	2cc\	2ee\
.	.	.	16c/	.	16gg\	.	.	.	.	.	.	.	.	.	.	.	.	.	.	.	.
8C/	.	.	16c/	.	16a\	.	.	.	.	.	.	.	.	.	.	.	.	.	.	.	.
.	.	.	16c/	.	16gg\JJ	.	.	.	.	.	.	.	.	.	.	.	.	.	.	.	.
8AA/	.	.	16c/	.	16a\LL	.	4d\)	.	.	.	.	.	4GG/	4dd\	4dd\	4dd\	4dd\	.	.	.	.
.	.	.	16c/	.	16gg\	.	.	.	.	.	.	.	.	.	.	.	.	.	.	.	.
8AA/	.	.	16c/	.	16a\	.	.	.	.	.	.	.	.	.	.	.	.	.	.	.	.
.	.	.	16c/JJ	.	16gg\JJ	.	.	.	.	.	.	.	.	.	.	.	.	.	.	.	.
!	!	!	!	!	!	!	!LO:N:vis=8	!	!	!	!	!	!	!	!	!	!LO:TX:t=P:problem=skreślona nadliczbowa miara taktu	!	!	!	!
8D/	#	.	16d/LL	.	16a\LL	.	4D/	-cu-	4a\	-ni-	4ff#X\	-ro	4GG/	4dd\	4dd\	4dd\	4dd\	4a\	4ff#X\	4a/	4ff#X\
.	.	.	16d/	.	16ff#X\	.	.	.	.	.	.	.	.	.	.	.	.	.	.	.	.
8D/J	.	.	16d/	.	16a\	.	.	.	.	.	.	.	.	.	.	.	.	.	.	.	.
.	.	.	16d/JJ	.	16ff#\JJ	.	.	.	.	.	.	.	.	.	.	.	.	.	.	.	.
*	*	*	*Xtremolo	*	*	*	*	*	*	*	*	*	*	*	*	*	*	*	*	*	*
=26	=26	=26	=26	=26	=26	=26	=26	=26	=26	=26	=26	=26	=26	=26	=26	=26	=26	=26	=26	=26	=26
!	!	!	!	!LO:DY:t=pia	!	!	!	!	!	!	!	!	!	!	!	!	!	!	!	!	!
4GG/	.	.	4G/	p	4gg 4b 4d/	.	4G\	-la	4b\	-tum.	4gg\	ge-	4GG/	4g/	4g/	4g/	4g/	4b\	4gg\	4b\	4gg\
!	!	!	!	!	!	!LO:DY:a:t=piano.	!	!	!	!	!	!	!	!	!	!	!	!	!	!	!
4r	.	.	4d/	.	4b\	p	4B\	an-	4r	.	4dd\	-ni-	4r	4r	4r	4r	4r	4r	4r	4r	4r
!	!	!	!	!	!	!	!	!LO:MO:mod=-te	!	!	!	!	!	!	!	!	!	!	!	!	!
4r	.	.	4d/	.	4b\	.	4B\	-ta	4r	.	4dd\	-tum	4r	4r	4r	4r	4r	4r	4r	4r	4r
=27	=27	=27	=27	=27	=27	=27	=27	=27	=27	=27	=27	=27	=27	=27	=27	=27	=27	=27	=27	=27	=27
!	!	!LO:DY:t=piano	!	!	!	!	!	!	!LO:TX:a:t=4.	!	!	!	!LO:TX:a:t=8.	!LO:TX:a:t=4.	!LO:TX:a:t=4.	!LO:TX:a:t=4.	!LO:TX:a:t=4.	!LO:TX:a:t=4.	!LO:TX:a:t=4.	!LO:TX:a:t=4.	!LO:TX:a:t=4
4G\	.	p	4.d/	.	4.b\	.	4.B\	om-	0.r	.	4.dd\	non	0.r	0.r	0.r	0.r	0.r	0.r	0.r	0.r	0.r
4r	.	.	.	.	.	.	.	.	.	.	.	.	.	.	.	.	.	.	.	.	.
.	.	.	8B/L	.	8g/L	.	8G\	-ni-	.	.	8b\	fa-	.	.	.	.	.	.	.	.	.
4r	.	.	8e/	.	8cc/	.	8c\L	-a	.	.	8ee\L	-ctum	.	.	.	.	.	.	.	.	.
.	.	.	8d/J	.	8b/J	.	8B\J	.	.	.	8dd\J	.	.	.	.	.	.	.	.	.	.
=28	=28	=28	=28	=28	=28	=28	=28	=28	=28	=28	=28	=28	=28	=28	=28	=28	=28	=28	=28	=28	=28
4D\	.	.	4c/	.	4a/	.	4A\	om-	.	.	[4cc\	Con-	.	.	.	.	.	.	.	.	.
4F#X\	.	.	4c/	.	4a/	.	4A\	-ni-	.	.	4cc\]	.	.	.	.	.	.	.	.	.	.
4A\	.	.	4c/	.	4a/	.	4A\	-a	.	.	4cc\	-ſub-	.	.	.	.	.	.	.	.	.
!	!	!	!	!	!LO:LB:g=original	!	!LO:LB:g=original	!	!	!	!	!	!	!	!	!	!	!	!	!	!
=29	=29	=29	=29	=29	=29	=29	=29	=29	=29	=29	=29	=29	=29	=29	=29	=29	=29	=29	=29	=29	=29
4D\	.	.	4.c/	.	4.a/	.	4.A\	om-	.	.	4.cc\	-ſtan-	.	.	.	.	.	.	.	.	.
4F#X\	.	.	.	.	.	.	.	.	.	.	.	.	.	.	.	.	.	.	.	.	.
!	!	!	!	!	!	!	!LO:SIC:v:o=8F\	!	!	!	!	!	!	!	!	!	!	!	!	!	!
.	.	.	8A/L	.	8f/L	.	8F#\	-ni-	.	.	8a\	-ti-	.	.	.	.	.	.	.	.	.
4D\	.	.	8d/	.	8b/	.	8B\	-a	.	.	8dd\	-a-	.	.	.	.	.	.	.	.	.
.	.	.	8c/J	.	8a/J	.	8A\	fa-	.	.	8cc\	-lem	.	.	.	.	.	.	.	.	.
=30	=30	=30	=30	=30	=30	=30	=30	=30	=30	=30	=30	=30	=30	=30	=30	=30	=30	=30	=30	=30	=30
4G\	.	.	4c/	.	4a/	.	4A\	-cta	.	.	4cc\	Pa-	.	.	.	.	.	.	.	.	.
*	*	*	*tremolo	*	*	*	*	*	*	*	*	*	*	*	*	*	*	*	*	*	*
4GG/	.	.	16B/LL	.	16g/LL	.	4G\	Sunt.	.	.	4b\	-tri.	.	.	.	.	.	.	.	.	.
.	.	.	16B/	.	16g/	.	.	.	.	.	.	.	.	.	.	.	.	.	.	.	.
.	.	.	16B/	.	16g/	.	.	.	.	.	.	.	.	.	.	.	.	.	.	.	.
.	.	.	16B/JJ	.	16g/JJ	.	.	.	.	.	.	.	.	.	.	.	.	.	.	.	.
*	*	*	*Xtremolo	*	*	*	*	*	*	*	*	*	*	*	*	*	*	*	*	*	*
4r	.	.	16g/LL	.	16b\LL	.	4r	.	.	.	4r	.	.	.	.	.	.	.	.	.	.
.	.	.	16g/	.	16b\	.	.	.	.	.	.	.	.	.	.	.	.	.	.	.	.
.	.	.	16b/	.	16dd\	.	.	.	.	.	.	.	.	.	.	.	.	.	.	.	.
!	!	!	!	!	!	!	!	!	!	!	!	!	!	!	!	!LO:TX:b:i:t=Volti Subito	!	!	!	!	!
.	.	.	16b/JJ	.	16dd\JJ	.	.	.	.	.	.	.	.	.	.	.	.	.	.	.	.
!	!	!	!	!	!	!	!	!	!	!	!	!	!	!	!	!LO:PB:g=original	!	!	!	!	!
=31	=31	=31	=31	=31	=31	=31	=31	=31	=31	=31	=31	=31	=31	=31	=31	=31	=31	=31	=31	=31	=31
*	*	*	*	*	*2\right	*	*	*	*	*	*	*	*	*	*	*	*	*	*	*	*
*tremolo	*	*	*tremolo	*	*tremolo	*	*	*	*	*	*	*	*	*	*	*	*	*	*	*	*
!	!	!	!	!LO:DY:t=for	!	!	!	!	!	!	!	!	!	!	!	!	!	!	!	!	!
8G\L	.	.	16b/LL	f	16gg\LL	.	(2G\	Et	2b\	Per	2gg\	per	0.r	2.g/	2.g/	2.g/	2.g/	2b\	2b\	2b\	2b\
.	.	.	16b/	.	16gg\	.	.	.	.	.	.	.	.	.	.	.	.	.	.	.	.
8G\	.	.	16b/	.	16gg\	.	.	.	.	.	.	.	.	.	.	.	.	.	.	.	.
.	.	.	16b/	.	16gg\	.	.	.	.	.	.	.	.	.	.	.	.	.	.	.	.
8G\	.	.	16b/	.	16gg\	.	.	.	.	.	.	.	.	.	.	.	.	.	.	.	.
.	.	.	16b/	.	16gg\	.	.	.	.	.	.	.	.	.	.	.	.	.	.	.	.
8G\J	.	.	16b/	.	16gg\	.	.	.	.	.	.	.	.	.	.	.	.	.	.	.	.
.	.	.	16b/JJ	.	16gg\JJ	.	.	.	.	.	.	.	.	.	.	.	.	.	.	.	.
*Xtremolo	*	*	*	*	*	*	*	*	*	*	*	*	*	*	*	*	*	*	*	*	*
8Fn\L	4 2	.	16g/LL	.	16b\LL	.	4Fn\)	.	4b\	quem	4b\	quem	.	.	.	.	.	4g/	4dd\	4g/	4dd\
.	.	.	16g/	.	16b\	.	.	.	.	.	.	.	.	.	.	.	.	.	.	.	.
8F\J	.	.	16g/	.	16b\	.	.	.	.	.	.	.	.	.	.	.	.	.	.	.	.
.	.	.	16g/JJ	.	16b\JJ	.	.	.	.	.	.	.	.	.	.	.	.	.	.	.	.
*	*	*	*	*	*Xtremolo	*	*	*	*	*	*	*	*	*	*	*	*	*	*	*	*
!LO:PB:g=original	!	!	!	!	!	!	!	!	!	!	!	!	!	!	!	!	!	!	!	!LO:LB:g=original	!
=32	=32	=32	=32	=32	=32	=32	=32	=32	=32	=32	=32	=32	=32	=32	=32	=32	=32	=32	=32	=32	=32
8E\L	6	.	16e/LL	.	16cc\LL	.	(4.E\	vi-	4.cc\	om-	4.cc\	om-	.	4g/	4g/	4g/	4g/	4e/	4cc\	4e/	4cc\
.	.	.	16e/	.	16cc\	.	.	.	.	.	.	.	.	.	.	.	.	.	.	.	.
8E\	.	.	16e/	.	16cc\	.	.	.	.	.	.	.	.	.	.	.	.	.	.	.	.
.	.	.	16e/JJ	.	16cc\JJ	.	.	.	.	.	.	.	.	.	.	.	.	.	.	.	.
8D\	6	.	16b/LL	.	16dd\LL	.	.	.	.	.	.	.	.	4r	4r	4r	4r	4b\	4dd\	4b\	4dd\
.	.	.	16b/	.	16dd\	.	.	.	.	.	.	.	.	.	.	.	.	.	.	.	.
8D\	.	.	16b/	.	16dd\	.	8D\	.	8b\	-ni-	8dd\	-ni-	.	.	.	.	.	.	.	.	.
.	.	.	16b/JJ	.	16dd\JJ	.	.	.	.	.	.	.	.	.	.	.	.	.	.	.	.
8C\	.	.	16cc/LL	.	16ee\LL	.	4C\)	-tam	4a\	-a	4ee\	-a	.	4r	4r	4r	4r	4cc\	4ee\	4cc\	4ee\
.	.	.	16cc/	.	16ee\	.	.	.	.	.	.	.	.	.	.	.	.	.	.	.	.
8C\J	.	.	16cc/	.	16ee\	.	.	.	.	.	.	.	.	.	.	.	.	.	.	.	.
.	.	.	16cc/JJ	.	16ee\JJ	.	.	.	.	.	.	.	.	.	.	.	.	.	.	.	.
!	!	!	!	!	!	!	!	!	!LO:LB:g=original	!	!LO:LB:g=original	!	!	!	!	!	!	!LO:LB:g=original	!LO:LB:g=original	!	!
=33	=33	=33	=33	=33	=33	=33	=33	=33	=33	=33	=33	=33	=33	=33	=33	=33	=33	=33	=33	=33	=33
*tremolo	*	*	*	*	*tremolo	*	*	*	*	*	*	*	*	*	*	*	*	*	*	*	*
!	!	!	!	!	!	!	!	!	!	!	!	!	!	!LO:TX:a:t=2.	!LO:TX:a:t=2.	!	!	!	!	!	!
8G\L	.	.	16b/LL	.	16gg\LL	.	[2B\	ven-	2dd\	per	2gg\	fa-	.	1.r	1.r	2g/	2dd\	2b\	2dd\	2b\	2dd\
.	.	.	16b/	.	16gg\	.	.	.	.	.	.	.	.	.	.	.	.	.	.	.	.
8G\	.	.	16b/	.	16gg\	.	.	.	.	.	.	.	.	.	.	.	.	.	.	.	.
.	.	.	16b/	.	16gg\	.	.	.	.	.	.	.	.	.	.	.	.	.	.	.	.
8G\	.	.	16b/	.	16gg\	.	.	.	.	.	.	.	.	.	.	.	.	.	.	.	.
.	.	.	16b/	.	16gg\	.	.	.	.	.	.	.	.	.	.	.	.	.	.	.	.
8G\J	.	.	16b/	.	16gg\	.	.	.	.	.	.	.	.	.	.	.	.	.	.	.	.
.	.	.	16b/	.	16gg\JJ	.	.	.	.	.	.	.	.	.	.	.	.	.	.	.	.
*Xtremolo	*	*	*	*	*Xtremolo	*	*	*	*	*	*	*	*	*	*	*	*	*	*	*	*
8B\L	6	.	16b/	.	16dd\LL	.	4B\]	.	4dd\	quem	4dd\	-cta	.	.	.	4dd\	4ff\	4dd\	4ff\	4dd\	4ff\
.	.	.	16b/	.	16dd\	.	.	.	.	.	.	.	.	.	.	.	.	.	.	.	.
8B\J	.	.	16b/	.	16dd\	.	.	.	.	.	.	.	.	.	.	.	.	.	.	.	.
.	.	.	16b/JJ	.	16dd\JJ	.	.	.	.	.	.	.	.	.	.	.	.	.	.	.	.
!	!	!	!	!	!LO:LB:g=original	!	!	!	!	!	!	!	!	!	!	!	!	!	!	!	!
=34	=34	=34	=34	=34	=34	=34	=34	=34	=34	=34	=34	=34	=34	=34	=34	=34	=34	=34	=34	=34	=34
!LO:TX:t=P:problem=mixed beam	!	!	!	!	!	!	!	!	!	!	!	!	!	!	!	!	!	!	!	!	!
8c\L	.	.	16cc\LL	.	16ee\LL	.	4.c\	-tu-	4.cc\	om-	(4.ee\	fac-	.	.	.	4cc\	4ee\	4cc\	4ee\	4cc\	4ee\
.	.	.	16cc\	.	16ee\	.	.	.	.	.	.	.	.	.	.	.	.	.	.	.	.
8c\	.	.	16cc\	.	16ee\	.	.	.	.	.	.	.	.	.	.	.	.	.	.	.	.
.	.	.	16cc\JJ	.	16ee\JJ	.	.	.	.	.	.	.	.	.	.	.	.	.	.	.	.
8G\	7	.	16dd\LL	.	16ffn\LL	.	.	.	.	.	.	.	.	.	.	4dd\	4ff\	4dd\	4ff\	4dd\	4ff\
.	.	.	16dd\	.	16ff\	.	.	.	.	.	.	.	.	.	.	.	.	.	.	.	.
8G\	.	.	16dd\	.	16ff\	.	8C/	.	8dd\	-ni-	8ff\	.	.	.	.	.	.	.	.	.	.
.	.	.	16dd\JJ	.	16ff\JJ	.	.	.	.	.	.	.	.	.	.	.	.	.	.	.	.
!	!	!	!	!	!	!	!	!	!	!	!	!	!	!	!	!	!LO:TX:b:i:t=Volti Subito	!	!	!	!
8C/	.	.	16ee\LL	.	16gg\LL	.	4C/	-ri.	4ee\	-a,	4gg\)	.	.	.	.	4ee\	4gg\	4ee\	4gg\	4ee\	4gg\
.	.	.	16ee\	.	16gg\	.	.	.	.	.	.	.	.	.	.	.	.	.	.	.	.
8C/J	.	.	16ee\	.	16gg\	.	.	.	.	.	.	.	.	.	.	.	.	.	.	.	.
.	.	.	16ee\JJ	.	16gg\JJ	.	.	.	.	.	.	.	.	.	.	.	.	.	.	.	.
!	!	!	!	!	!	!	!	!	!	!	!	!	!	!LO:LB:g=original	!LO:LB:g=original	!	!LO:PB:g=original	!	!	!	!
=35	=35	=35	=35	=35	=35	=35	=35	=35	=35	=35	=35	=35	=35	=35	=35	=35	=35	=35	=35	=35	=35
*tremolo	*	*	*	*	*tremolo	*	*	*	*	*	*	*	*	*	*	*	*	*	*	*	*
8E\L	.	.	16e/LL	.	16ccc\LL	.	(2c\	ven-	2g\	per	2ee\	-ta	2C/	2cc\	2ee\	2cc\	2ee\	2cc\	2ee\	2cc\	2ee\
.	.	.	16e/	.	16ccc\	.	.	.	.	.	.	.	.	.	.	.	.	.	.	.	.
8E\	.	.	16e/	.	16ccc\	.	.	.	.	.	.	.	.	.	.	.	.	.	.	.	.
.	.	.	16e/	.	16ccc\	.	.	.	.	.	.	.	.	.	.	.	.	.	.	.	.
8E\	.	.	16e/	.	16ccc\	.	.	.	.	.	.	.	.	.	.	.	.	.	.	.	.
.	.	.	16e/	.	16ccc\	.	.	.	.	.	.	.	.	.	.	.	.	.	.	.	.
8E\	.	.	16e/	.	16ccc\	.	.	.	.	.	.	.	.	.	.	.	.	.	.	.	.
.	.	.	16e/	.	16ccc\JJ	.	.	.	.	.	.	.	.	.	.	.	.	.	.	.	.
8E\	.	.	16e/	.	16gg\LL	.	4E\)	.	4g\	quem	4ee\	om-	4C/	4e/	4cc\	4e/	4cc\	4ee\	4gg\	4ee\	4gg\
.	.	.	16e/	.	16gg\	.	.	.	.	.	.	.	.	.	.	.	.	.	.	.	.
8E\J	.	.	16e/	.	16gg\	.	.	.	.	.	.	.	.	.	.	.	.	.	.	.	.
.	.	.	16e/JJ	.	16gg\JJ	.	.	.	.	.	.	.	.	.	.	.	.	.	.	.	.
!	!	!	!	!	!	!	!LO:LB:g=original	!	!	!	!	!	!	!	!	!	!	!	!	!	!LO:LB:g=original
=36	=36	=36	=36	=36	=36	=36	=36	=36	=36	=36	=36	=36	=36	=36	=36	=36	=36	=36	=36	=36	=36
8F\L	.	.	16f/LL	.	16aa\LL	.	4.F\	-tu-	(4a\	om-	(4ff\	-ni-	4C/	4c/	4cc\	4c/	4cc\	4dd\	4ff\	4dd\	4ff\
.	.	.	16f/	.	16aa\	.	.	.	.	.	.	.	.	.	.	.	.	.	.	.	.
8F\	.	.	16f/	.	16aa\	.	.	.	.	.	.	.	.	.	.	.	.	.	.	.	.
.	.	.	16f/JJ	.	16aa\JJ	.	.	.	.	.	.	.	.	.	.	.	.	.	.	.	.
8F\	.	.	16g/LL	.	16bb\LL	.	.	.	4g\	-ni-	4ee\	.	4r	4r	4r	4r	4r	4ee\	4gg\	4ee\	4gg\
.	.	.	16g/	.	16bb\	.	.	.	.	.	.	.	.	.	.	.	.	.	.	.	.
8F\	.	.	16g/	.	16bb\	.	(8F\	.	.	.	.	.	.	.	.	.	.	.	.	.	.
.	.	.	16g/JJ	.	16bb\JJ	.	.	.	.	.	.	.	.	.	.	.	.	.	.	.	.
8F\	.	.	16a/LL	.	16ccc\LL	.	4F\)	-ri	4f\)	-a	4dd\)	-a	4r	4r	4r	4r	4r	4ff\	4aa\	4ff\	4aa\
.	.	.	16a/	.	16ccc\	.	.	.	.	.	.	.	.	.	.	.	.	.	.	.	.
8F\J	.	.	16a/	.	16ccc\	.	.	.	.	.	.	.	.	.	.	.	.	.	.	.	.
.	.	.	16a/JJ	.	16ccc\JJ	.	.	.	.	.	.	.	.	.	.	.	.	.	.	.	.
*	*	*	*	*	*Xtremolo	*	*	*	*	*	*	*	*	*	*	*	*	*	*	*	*
!	!	!	!LO:LB:g=original	!	!	!	!	!	!	!	!	!	!	!	!	!	!	!	!	!	!
=37	=37	=37	=37	=37	=37	=37	=37	=37	=37	=37	=37	=37	=37	=37	=37	=37	=37	=37	=37	=37	=37
*	*	*	*	*	*	*	*	*	*2\left	*	*	*	*	*	*	*	*	*	*	*	*
8G\L	.	.	16eLL 16G/	.	16ee\LL	.	2G\	sae-	2g\	fac-	2gg\	fa-	2C/	2e/	2cc\	2e/	2cc\	2ee\	2gg\	2ee\	2gg\
.	.	.	16e 16G/	.	16ccc\	.	.	.	.	.	.	.	.	.	.	.	.	.	.	.	.
8G\	.	.	16e 16G/	.	16ee\	.	.	.	.	.	.	.	.	.	.	.	.	.	.	.	.
.	.	.	16e 16G/	.	16ccc\JJ	.	.	.	.	.	.	.	.	.	.	.	.	.	.	.	.
8G\	.	.	16e 16G/	.	16ee\LL	.	.	.	.	.	.	.	.	.	.	.	.	.	.	.	.
.	.	.	16e 16G/	.	16ccc\	.	.	.	.	.	.	.	.	.	.	.	.	.	.	.	.
8G\J	.	.	16e 16G/	.	16ee\	.	.	.	.	.	.	.	.	.	.	.	.	.	.	.	.
.	.	.	16eJJ 16G/	.	16ccc\JJ	.	.	.	.	.	.	.	.	.	.	.	.	.	.	.	.
*Xtremolo	*	*	*	*	*	*	*	*	*	*	*	*	*	*	*	*	*	*	*	*	*
8GG/L	.	.	16dLL 16G/	.	16dd\LL	.	4GG/	-cu-	4g\	-ta	4g/	-cta	4GG/	4g/	4dd\	4g/	4dd\	4f/	4b\	4f/	4b/
.	.	.	16d 16G/	.	16bb\	.	.	.	.	.	.	.	.	.	.	.	.	.	.	.	.
8GG/J	.	.	16d 16G/	.	16dd\	.	.	.	.	.	.	.	.	.	.	.	.	.	.	.	.
.	.	.	16dJJ 16G/	.	16bb\JJ	.	.	.	.	.	.	.	.	.	.	.	.	.	.	.	.
*	*	*	*Xtremolo	*	*	*	*	*	*	*	*	*	*	*	*	*	*	*	*	*	*
=38	=38	=38	=38	=38	=38	=38	=38	=38	=38	=38	=38	=38	=38	=38	=38	=38	=38	=38	=38	=38	=38
4C/	.	.	16e/LL	.	16cccLL 16ee\	.	4C/	-li	4c\	sunt.	4cc\	sunt.	4C/	4cc\	4ee\	4cc\	4ee\	4e/	4cc\	4e/	4cc\
.	.	.	16c/	.	16cc\	.	.	.	.	.	.	.	.	.	.	.	.	.	.	.	.
.	.	.	16B/	.	16dd\	.	.	.	.	.	.	.	.	.	.	.	.	.	.	.	.
.	.	.	16c/JJ	.	16ee\JJ	.	.	.	.	.	.	.	.	.	.	.	.	.	.	.	.
4r	.	.	16d/LL	.	16ff\LL	.	4r	.	4r	.	4r	.	4r	4r	4r	4r	4r	4r	4r	4r	4r
.	.	.	16e/	.	16gg\	.	.	.	.	.	.	.	.	.	.	.	.	.	.	.	.
.	.	.	16f/	.	16aa\	.	.	.	.	.	.	.	.	.	.	.	.	.	.	.	.
.	.	.	16d/JJ	.	16bb\JJ	.	.	.	.	.	.	.	.	.	.	.	.	.	.	.	.
4r	.	.	4e/	.	4ccc\	.	4r	.	4r	.	4r	.	4r	4r	4r	4r	4r	4r	4r	4r	4r
!	!	!	!	!	!LO:LB:g=original	!	!	!	!	!	!	!	!	!	!	!	!	!	!	!	!
=39	=39	=39	=39	=39	=39	=39	=39	=39	=39	=39	=39	=39	=39	=39	=39	=39	=39	=39	=39	=39	=39
*tremolo	*	*	*tremolo	*	*tremolo	*	*	*	*2\right	*	*	*	*	*	*	*	*	*	*	*	*
8C/L	.	.	16eLL 16G/	.	16ccc\LL	.	2c\	ven-	2g\	per	2ee\	per	2C/	2cc\	2ee\	2cc\	2ee\	2cc\	2ee\	2cc\	2ee\
.	.	.	16e 16G/	.	16ccc\	.	.	.	.	.	.	.	.	.	.	.	.	.	.	.	.
8C/	.	.	16e 16G/	.	16ccc\	.	.	.	.	.	.	.	.	.	.	.	.	.	.	.	.
.	.	.	16e 16G/	.	16ccc\	.	.	.	.	.	.	.	.	.	.	.	.	.	.	.	.
8C/	.	.	16e 16G/	.	16ccc\	.	.	.	.	.	.	.	.	.	.	.	.	.	.	.	.
.	.	.	16e 16G/	.	16ccc\	.	.	.	.	.	.	.	.	.	.	.	.	.	.	.	.
8C/J	.	.	16e 16G/	.	16ccc\	.	.	.	.	.	.	.	.	.	.	.	.	.	.	.	.
.	.	.	16e 16G/	.	16ccc\JJ	.	.	.	.	.	.	.	.	.	.	.	.	.	.	.	.
*Xtremolo	*	*	*	*	*	*	*	*	*	*	*	*	*	*	*	*	*	*	*	*	*
8E\L	.	.	16e 16G/	.	16gg\LL	.	4E\	.	4g\	quem	4ee\	quem	4C/	4e/	4cc\	4e/	4cc\	4ee\	4gg\	4ee\	4gg\
.	.	.	16e 16G/	.	16gg\	.	.	.	.	.	.	.	.	.	.	.	.	.	.	.	.
8E\J	.	.	16e 16G/	.	16gg\	.	.	.	.	.	.	.	.	.	.	.	.	.	.	.	.
.	.	.	16eJJ 16G/	.	16gg\JJ	.	.	.	.	.	.	.	.	.	.	.	.	.	.	.	.
*	*	*	*	*	*Xtremolo	*	*	*	*	*	*	*	*	*	*	*	*	*	*	*	*
!LO:LB:g=original	!	!	!	!	!	!	!	!	!	!	!	!	!LO:LB:g=original	!	!	!	!	!	!	!	!
=40	=40	=40	=40	=40	=40	=40	=40	=40	=40	=40	=40	=40	=40	=40	=40	=40	=40	=40	=40	=40	=40
*tremolo	*	*	*	*	*	*	*	*	*	*	*	*	*	*	*	*	*	*	*	*	*
8F\L	.	.	16f/LL	.	16aa\LL	.	4.F\	-tu-	4a\	om-	4ff\	om-	4C/	4c/	4cc\	4c/	4cc\	4dd\	4ff\	4dd\	4ff\
.	.	.	16f/	.	16aa\	.	.	.	.	.	.	.	.	.	.	.	.	.	.	.	.
8F\	.	.	16f/	.	16aa\	.	.	.	.	.	.	.	.	.	.	.	.	.	.	.	.
.	.	.	16f/JJ	.	16aa\JJ	.	.	.	.	.	.	.	.	.	.	.	.	.	.	.	.
8F\	.	.	16g/LL	.	16bb\LL	.	.	.	4b\	-ni-	4gg\	-ni-	4r	4r	4r	4r	4r	4ee\	4gg\	4ee\	4gg\
.	.	.	16g/	.	16bb\	.	.	.	.	.	.	.	.	.	.	.	.	.	.	.	.
8F\J	.	.	16g/	.	16bb\	.	(8F\	.	.	.	.	.	.	.	.	.	.	.	.	.	.
.	.	.	16g/JJ	.	16bb\JJ	.	.	.	.	.	.	.	.	.	.	.	.	.	.	.	.
*Xtremolo	*	*	*	*	*	*	*	*	*	*	*	*	*	*	*	*	*	*	*	*	*
8A\L	.	.	16a/LL	.	16ccc\LL	.	4F\)	-ri	4cc\	-a	4aa\	-a	4r	4r	4r	4r	4r	4ff\	4aa\	4ff\	4aa\
.	.	.	16a/	.	16ccc\	.	.	.	.	.	.	.	.	.	.	.	.	.	.	.	.
8A\J	.	.	16a/	.	16ccc\	.	.	.	.	.	.	.	.	.	.	.	.	.	.	.	.
.	.	.	16a/JJ	.	16ccc\JJ	.	.	.	.	.	.	.	.	.	.	.	.	.	.	.	.
!	!	!	!	!	!	!	!	!	!LO:LB:g=original	!	!	!	!	!	!	!	!	!	!	!	!
=41	=41	=41	=41	=41	=41	=41	=41	=41	=41	=41	=41	=41	=41	=41	=41	=41	=41	=41	=41	=41	=41
*tremolo	*	*	*	*	*	*	*	*	*	*	*	*	*	*	*	*	*	*	*	*	*
!	!	!	!	!	!	!	!	!	!	!	!	!	!LO:TX:a:t=1.	!LO:TX:a:t=1.	!	!LO:TX:a:t=1.	!LO:TX:a:t=1.	!	!	!	!
8D\L	.	.	16d/LL	.	16ff\LL	.	4.F\	Sae-	(4f\	fa-	4dd\	om-	2.r	2.r	2.r	2.r	2.r	4b\	4dd\	4b\	4dd\
.	.	.	16d/	.	16ff\	.	.	.	.	.	.	.	.	.	.	.	.	.	.	.	.
8D\	.	.	16d/	.	16ff\	.	.	.	.	.	.	.	.	.	.	.	.	.	.	.	.
.	.	.	16d/JJ	.	16ff\JJ	.	.	.	.	.	.	.	.	.	.	.	.	.	.	.	.
8D\	.	.	16e/LL	.	16gg\LL	.	.	.	4g\	.	4ee\	-ni-	.	.	.	.	.	4cc\	4ee\	4cc\	4ee\
.	.	.	16e/	.	16gg\	.	.	.	.	.	.	.	.	.	.	.	.	.	.	.	.
8D\J	.	.	16e/	.	16gg\	.	8F\	-cu-	.	.	.	.	.	.	.	.	.	.	.	.	.
.	.	.	16e/JJ	.	16gg\JJ	.	.	.	.	.	.	.	.	.	.	.	.	.	.	.	.
*Xtremolo	*	*	*	*	*	*	*	*	*	*	*	*	*	*	*	*	*	*	*	*	*
8F\L	.	.	16f/LL	.	16aa\LL	.	4F\	-li	4a\)	-cta	4ff\	-a	.	.	.	.	.	4dd\	4ff\	4dd\	4ff\
.	.	.	16f/	.	16aa\	.	.	.	.	.	.	.	.	.	.	.	.	.	.	.	.
8F\J	.	.	16f/	.	16aa\	.	.	.	.	.	.	.	.	.	.	.	.	.	.	.	.
.	.	.	16f/JJ	.	16aa\JJ	.	.	.	.	.	.	.	.	.	.	.	.	.	.	.	.
!	!	!	!	!	!	!	!	!	!	!	!	!	!	!	!	!	!	!	!	!LO:LB:g=original	!
=42	=42	=42	=42	=42	=42	=42	=42	=42	=42	=42	=42	=42	=42	=42	=42	=42	=42	=42	=42	=42	=42
*tremolo	*	*	*	*	*	*	*	*	*	*	*	*	*	*	*	*	*	*	*	*	*
8G\L	.	.	16eLL 16G/	.	16ee\LL	.	2.G\	a-	2.cc\	sunt	2.ee\	fa-	2.C/	2.cc\	2.ee\	2.cc\	2.ee\	2.cc\	2.ee\	2.cc\	2.ee\
.	.	.	16e 16G/	.	16ccc\	.	.	.	.	.	.	.	.	.	.	.	.	.	.	.	.
8G\	.	.	16e 16G/	.	16ee\	.	.	.	.	.	.	.	.	.	.	.	.	.	.	.	.
.	.	.	16e 16G/	.	16ccc\JJ	.	.	.	.	.	.	.	.	.	.	.	.	.	.	.	.
8G\	.	.	16e 16G/	.	16ee\LL	.	.	.	.	.	.	.	.	.	.	.	.	.	.	.	.
.	.	.	16e 16G/	.	16ccc\	.	.	.	.	.	.	.	.	.	.	.	.	.	.	.	.
8G\	.	.	16e 16G/	.	16ee\	.	.	.	.	.	.	.	.	.	.	.	.	.	.	.	.
.	.	.	16e 16G/	.	16ccc\JJ	.	.	.	.	.	.	.	.	.	.	.	.	.	.	.	.
8G\	.	.	16e 16G/	.	16ee\LL	.	.	.	.	.	.	.	.	.	.	.	.	.	.	.	.
.	.	.	16e 16G/	.	16ccc\	.	.	.	.	.	.	.	.	.	.	.	.	.	.	.	.
8G\J	.	.	16e 16G/	.	16ee\	.	.	.	.	.	.	.	.	.	.	.	.	.	.	.	.
.	.	.	16eJJ 16G/	.	16ccc\JJ	.	.	.	.	.	.	.	.	.	.	.	.	.	.	.	.
!	!	!	!	!	!LO:LB:g=original	!	!LO:LB:g=original	!	!	!	!LO:LB:g=original	!	!	!	!	!LO:LB:g=original	!	!	!LO:LB:g=original	!	!
=43	=43	=43	=43	=43	=43	=43	=43	=43	=43	=43	=43	=43	=43	=43	=43	=43	=43	=43	=43	=43	=43
8GG/L	.	.	16fLL 16G/	.	16dd\LL	.	2.GG/	-men	2.b\	fac-	2.dd\	-cta	2.GG/	2.g/	2.dd\	2.g/	2.dd\	2.b\	2.dd\	2.b\	2.dd\
.	.	.	16f 16G/	.	16bb\	.	.	.	.	.	.	.	.	.	.	.	.	.	.	.	.
8GG/	.	.	16f 16G/	.	16dd\	.	.	.	.	.	.	.	.	.	.	.	.	.	.	.	.
.	.	.	16f 16G/	.	16bb\JJ	.	.	.	.	.	.	.	.	.	.	.	.	.	.	.	.
8GG/	.	.	16f 16G/	.	16dd\LL	.	.	.	.	.	.	.	.	.	.	.	.	.	.	.	.
.	.	.	16f 16G/	.	16bb\	.	.	.	.	.	.	.	.	.	.	.	.	.	.	.	.
8GG/	.	.	16f 16G/	.	16dd\	.	.	.	.	.	.	.	.	.	.	.	.	.	.	.	.
.	.	.	16f 16G/	.	16bb\JJ	.	.	.	.	.	.	.	.	.	.	.	.	.	.	.	.
8GG/	.	.	16f 16G/	.	16dd\LL	.	.	.	.	.	.	.	.	.	.	.	.	.	.	.	.
.	.	.	16f 16G/	.	16bb\	.	.	.	.	.	.	.	.	.	.	.	.	.	.	.	.
8GG/J	.	.	16f 16G/	.	16dd\	.	.	.	.	.	.	.	.	.	.	.	.	.	.	.	.
.	.	.	16fJJ 16G/	.	16bb\JJ	.	.	.	.	.	.	.	.	.	.	.	.	.	.	.	.
*Xtremolo	*	*	*Xtremolo	*	*	*	*	*	*	*	*	*	*	*	*	*	*	*	*	*	*
!	!	!	!	!	!	!	!	!	!	!	!	!	!	!	!	!	!	!LO:LB:g=original	!	!	!
=44	=44	=44	=44	=44	=44	=44	=44	=44	=44	=44	=44	=44	=44	=44	=44	=44	=44	=44	=44	=44	=44
4C/	.	.	4e 4G/	.	4ccc 4ee\	.	4C/	a-	(4cc\	.	4cc\	sunt	4C/	4e/	4cc\	4e/	4cc\	4cc\	4ee\	4cc\	4ee\
4C/	.	.	4e 4G/	.	4ccc 4ee\	.	4c\	-men	4g\	.	4ee\	fa-	4C/	4e/	4cc\	4e/	4cc\	4ee\	4gg\	4ee\	4gg\
4C/	.	.	4e 4G/	.	4ccc 4ee\	.	4c\	a-	4g\)	ta	4ee\	-cta	4C/	4e/	4cc\	4e/	4cc\	4ee\	4gg\	4ee\	4gg\
!	!	!	!	!	!	!	!	!	!	!	!	!	!	!LO:LB:g=original	!	!	!	!	!	!	!
=45	=45	=45	=45	=45	=45	=45	=45	=45	=45	=45	=45	=45	=45	=45	=45	=45	=45	=45	=45	=45	=45
4C/	.	.	4e 4G/	.	4ccc 4ee\	.	4c\	-men.	4g\	sunt.	4ee\	Sunt.	4C/	4e/	4cc\	4e/	4cc\	4cc\	4ee\	4cc\	4ee\
4r	.	.	4r	.	4r	.	4r	.	4r	.	4r	.	4r	4r	4r	4r	4r	4r	4r	4r	4r
4r	.	.	4r	.	4r	.	4r	.	4r	.	4r	.	4r	4r	4r	4r	4r	4r	4r	4r	4r
==	==	==	==	==	==	==	==	==	==	==	==	==	==	==	==	==	==	==	==	==	==
*-	*-	*-	*-	*-	*-	*-	*-	*-	*-	*-	*-	*-	*-	*-	*-	*-	*-	*-	*-	*-	*-
!!!system-decoration: [(g1)][(g2)]<s9>[(g3)][(g4)]<s15>
!!!RDF**kern: > = above
!!!RDF**kern: < = below
!!!RDF**kern: | = vertical stroke
!!!ENC: Krzysztof Stępień
!!!END: 2020-10-05
!!!ENC: Andrzej Kubiczek
!!!END: 2022-02-03
